symbols/web/auto_delete/materialsymbolsrounded/auto_delete_grad200_40px.svg

<svg xmlns="http://www.w3.org/2000/svg" height="40" width="40"><path d="M16.25 12.542q-.708 0-1.229.5-.521.5-.521 1.208v12.833q0 .75.5 1.25t1.25.5q0-3.458.875-5.125L18 22.042V14.25q0-.708-.521-1.208t-1.229-.5Zm5.333 5.708q.667-.5 1.667-.938 1-.437 1.833-.645V14.25q0-.708-.521-1.208-.52-.5-1.229-.5-.708 0-1.229.5-.521.5-.521 1.208Zm6.584 18.917q-3.75 0-6.334-2.625-2.583-2.625-2.583-6.334 0-3.75 2.604-6.354t6.313-2.604q3.75 0 6.375 2.604t2.625 6.354q0 3.709-2.646 6.334-2.646 2.625-6.354 2.625Zm.875-9.292v-4.417q0-.416-.271-.666-.271-.25-.646-.25-.417 0-.667.27-.25.271-.25.646v4.417q0 .375.125.708.125.334.375.542l2.542 2.542q.25.25.625.25t.667-.25q.25-.25.25-.625t-.25-.667Zm-10.042 8h-7.958q-1.417 0-2.459-1.042-1.041-1.041-1.041-2.458V9h-.375q-.584-.125-.979-.583-.396-.459-.396-1.125 0-.709.5-1.229.5-.521 1.25-.521h7.041q0-.625.5-1.104.5-.48 1.25-.48h6.917q.708 0 1.208.48.5.479.5 1.104h7.084q.708 0 1.229.521.521.52.521 1.229 0 .666-.417 1.125-.417.458-1 .583h-.333v7.917q-.792-.25-1.75-.459-.959-.208-1.75-.208V9.042h-17.5v23.333h6.125q.25.792.75 1.792T19 35.875ZM11.042 9.042v23.333Z"/></svg>

<svg xmlns="http://www.w3.org/2000/svg" height="40" width="40"><path d="M16.25 12.542Q15.542 12.542 15.021 13.042Q14.5 13.542 14.5 14.25V27.083Q14.5 27.833 15 28.333Q15.5 28.833 16.25 28.833Q16.25 25.375 17.125 23.708Q18 22.042 18 22.042V14.25Q18 13.542 17.479 13.042Q16.958 12.542 16.25 12.542ZM21.583 18.25Q22.25 17.75 23.25 17.312Q24.25 16.875 25.083 16.667V14.25Q25.083 13.542 24.562 13.042Q24.042 12.542 23.333 12.542Q22.625 12.542 22.104 13.042Q21.583 13.542 21.583 14.25ZM28.167 37.167Q24.417 37.167 21.833 34.542Q19.25 31.917 19.25 28.208Q19.25 24.458 21.854 21.854Q24.458 19.25 28.167 19.25Q31.917 19.25 34.542 21.854Q37.167 24.458 37.167 28.208Q37.167 31.917 34.521 34.542Q31.875 37.167 28.167 37.167ZM29.042 27.875V23.458Q29.042 23.042 28.771 22.792Q28.5 22.542 28.125 22.542Q27.708 22.542 27.458 22.812Q27.208 23.083 27.208 23.458V27.875Q27.208 28.25 27.333 28.583Q27.458 28.917 27.708 29.125L30.25 31.667Q30.5 31.917 30.875 31.917Q31.25 31.917 31.542 31.667Q31.792 31.417 31.792 31.042Q31.792 30.667 31.542 30.375ZM19 35.875H11.042Q9.625 35.875 8.583 34.833Q7.542 33.792 7.542 32.375V9H7.167Q6.583 8.875 6.188 8.417Q5.792 7.958 5.792 7.292Q5.792 6.583 6.292 6.063Q6.792 5.542 7.542 5.542H14.583Q14.583 4.917 15.083 4.438Q15.583 3.958 16.333 3.958H23.25Q23.958 3.958 24.458 4.438Q24.958 4.917 24.958 5.542H32.042Q32.75 5.542 33.271 6.063Q33.792 6.583 33.792 7.292Q33.792 7.958 33.375 8.417Q32.958 8.875 32.375 9H32.042V16.917Q31.25 16.667 30.292 16.458Q29.333 16.25 28.542 16.25V9.042H11.042V32.375Q11.042 32.375 11.042 32.375Q11.042 32.375 11.042 32.375H17.167Q17.417 33.167 17.917 34.167Q18.417 35.167 19 35.875ZM11.042 9.042V16.25Q11.042 16.125 11.042 19.625Q11.042 23.125 11.042 28.208Q11.042 29.292 11.042 30.333Q11.042 31.375 11.042 32.375Q11.042 32.375 11.042 32.375Q11.042 32.375 11.042 32.375Z"/></svg>
